public/youtube.svg

<svg width="24" height="22" viewBox="0 0 24 22" fill="none" xmlns="http://www.w3.org/2000/svg">
<path fill-rule="evenodd" clip-rule="evenodd" d="M20.8293 3.65663C21.7911 3.78193 22.7103 4.71724 22.8272 5.69265C23.2413 9.26736 23.2413 12.7338 22.8272 16.3074C22.7103 17.2828 21.7911 18.2192 20.8293 18.3434C14.9649 19.0721 9.03427 19.0721 3.17155 18.3434C2.20895 18.2189 1.28979 17.2828 1.17284 16.3074C0.758792 12.7335 0.758792 9.26736 1.17284 5.69265C1.28979 4.71724 2.20895 3.78166 3.17155 3.65663C9.03427 2.92793 14.9647 2.92793 20.8293 3.65663ZM10.1436 7.28788V14.7133L15.7126 11.0007L10.1436 7.28788Z" fill="#141414"/>
</svg>

<svg width="24" height="22" fill="none" xmlns="http://www.w3.org/2000/svg"><path fill-rule="evenodd" clip-rule="evenodd" d="M20.83 3.657c.961.125 1.88 1.06 1.997 2.036a45.504 45.504 0 0 1 0 10.614c-.117.976-1.036 1.912-1.998 2.036a71.587 71.587 0 0 1-17.657 0c-.963-.124-1.882-1.06-2-2.036a45.51 45.51 0 0 1 0-10.614c.118-.976 1.037-1.911 2-2.036a71.587 71.587 0 0 1 17.657 0Zm-10.686 3.63v7.426l5.569-3.712-5.57-3.713Z" fill="#141414"/></svg>
